images_elementary_svg/cmd/ca/sc_bold.svg

<svg viewBox="0 0 16 16" xmlns="http://www.w3.org/2000/svg" xmlns:xlink="http://www.w3.org/1999/xlink"><radialGradient id="a" cx="6" cy="3.41416" gradientTransform="matrix(.00000011 4.5623183 -3.2204598 .00000008 16.901396 -27.37391)" gradientUnits="userSpaceOnUse" r="3.726176"><stop offset="0" stop-color="#737373"/><stop offset=".262" stop-color="#636363"/><stop offset=".705" stop-color="#4b4b4b"/><stop offset="1" stop-color="#3f3f3f"/></radialGradient>

/&amp;amp;gt;<path d="m14.389115 14.5h-3.494957l-5.5768545-9.8372789h-.080037c.035572.4565084.065215.9100525.08893 1.3606322.023715.3853643.041501.7914789.053358 1.218344.017786.4209363.03868.8005851.026679 1.1383067v6.118399l-2 .0016v-13.0016003h3.4771714l5.5939791 9.7378583h.05336c-.01779-.450579-.03854-.89523-.06225-1.3339531-.005934-.1897177-.014827-.3823998-.02668-.5780463-.005934-.2015752-.011864-.400186-.01779-.5958325-.005934-.2015751-.011864-.3942573-.01779-.5780464v-.4980092-6.1539708h1.982875z" fill="url(#a)" stroke="#000" stroke-opacity=".6" transform="translate(-.906234 .001597)"/></svg>

<?xml version="1.0" encoding="UTF-8" standalone="no"?>
<svg
   xmlns:dc="http://purl.org/dc/elements/1.1/"
   xmlns:cc="http://creativecommons.org/ns#"
   xmlns:rdf="http://www.w3.org/1999/02/22-rdf-syntax-ns#"
   xmlns:svg="http://www.w3.org/2000/svg"
   xmlns="http://www.w3.org/2000/svg"
   xmlns:xlink="http://www.w3.org/1999/xlink"
   xmlns:sodipodi="http://sodipodi.sourceforge.net/DTD/sodipodi-0.dtd"
   xmlns:inkscape="http://www.inkscape.org/namespaces/inkscape"
   viewBox="0 0 16 16"
   version="1.1"
   id="svg13"
   sodipodi:docname="sc_bold.svg"
   inkscape:version="0.92.4 (unknown)"
   inkscape:export-filename="/home/rizmut/Dokumen/Rizmut/Github/libreoffice-style-elementary/images_elementary/cmd/ca/sc_bold.png"
   inkscape:export-xdpi="96"
   inkscape:export-ydpi="96"><metadata
   id="metadata19">
  <rdf:RDF>
    <cc:Work
       rdf:about="">
      <dc:format>image/svg+xml</dc:format>
      <dc:type
         rdf:resource="http://purl.org/dc/dcmitype/StillImage" />
      <dc:title />
    </cc:Work>
  </rdf:RDF>
</metadata>
<defs
   id="defs17">
  <radialGradient
     inkscape:collect="always"
     xlink:href="#a"
     id="radialGradient840"
     cx="6"
     cy="3.4141598"
     fx="6"
     fy="3.4141598"
     r="3.726176"
     gradientTransform="matrix(1.0631973e-7,4.5623183,-3.2204598,7.5049214e-8,16.901396,-27.37391)"
     gradientUnits="userSpaceOnUse" />
  <radialGradient
     inkscape:collect="always"
     xlink:href="#a"
     id="radialGradient928"
     gradientUnits="userSpaceOnUse"
     gradientTransform="matrix(1.0631973e-7,4.5623183,-3.2204598,7.5049214e-8,16.901396,-27.37391)"
     cx="6"
     cy="3.4141598"
     fx="6"
     fy="3.4141598"
     r="3.726176" />
</defs>
<sodipodi:namedview
   pagecolor="#ffffff"
   bordercolor="#666666"
   borderopacity="1"
   objecttolerance="10"
   gridtolerance="10"
   guidetolerance="10"
   inkscape:pageopacity="0"
   inkscape:pageshadow="2"
   inkscape:window-width="1366"
   inkscape:window-height="714"
   id="namedview15"
   showgrid="true"
   inkscape:zoom="11.313709"
   inkscape:cx="12.911105"
   inkscape:cy="11.500947"
   inkscape:window-x="0"
   inkscape:window-y="28"
   inkscape:window-maximized="1"
   inkscape:current-layer="svg13">
  <inkscape:grid
     type="xygrid"
     id="grid826" />
</sodipodi:namedview>
<radialGradient
   id="a"
   cx="11.375"
   cy="1.125"
   gradientTransform="matrix(-2.81612 0 0 -3.9403 43.408 3.466)"
   gradientUnits="userSpaceOnUse"
   r="5.154">
  <stop
     offset="0"
     stop-color="#737373"
     id="stop2" />
  <stop
     offset=".262"
     stop-color="#636363"
     id="stop4" />
  <stop
     offset=".705"
     stop-color="#4b4b4b"
     id="stop6" />
  <stop
     offset="1"
     stop-color="#3f3f3f"
     id="stop8" />
</radialGradient>

/&amp;gt;<g
   aria-label="N"
   style="font-style:normal;font-weight:normal;font-size:18.21290779px;line-height:1.25;font-family:sans-serif;letter-spacing:0px;word-spacing:0px;fill:url(#radialGradient840);fill-opacity:1;stroke:#000000;stroke-width:1;stroke-opacity:0.60000002;stroke-miterlimit:4;stroke-dasharray:none"
   id="text830"
   transform="translate(-0.9062335,0.0015973)">
  <path
     d="M 14.389115,14.5 H 10.894158 L 5.3173035,4.6627211 h -0.080037 c 0.035572,0.4565084 0.065215,0.9100525 0.08893,1.3606322 0.023715,0.3853643 0.041501,0.7914789 0.053358,1.218344 0.017786,0.4209363 0.03868,0.8005851 0.026679,1.1383067 v 6.118399 l -2,0.0016 V 1.4984027 h 3.4771714 l 5.5939791,9.7378583 h 0.05336 c -0.01779,-0.450579 -0.03854,-0.89523 -0.06225,-1.3339531 C 12.46256,9.7125902 12.453667,9.5199081 12.441814,9.3242616 12.43588,9.1226864 12.42995,8.9240756 12.424024,8.7284291 12.41809,8.526854 12.41216,8.3341718 12.406234,8.1503827 V 7.6523735 1.4984027 h 1.982875 z"
     style="font-style:normal;font-variant:normal;font-weight:bold;font-stretch:normal;font-family:'Droid Sans';-inkscape-font-specification:'Droid Sans Bold';fill:url(#radialGradient928);fill-opacity:1;stroke:#000000;stroke-width:1;stroke-miterlimit:4;stroke-dasharray:none;stroke-opacity:0.6"
     id="path922"
     inkscape:connector-curvature="0"
     sodipodi:nodetypes="ccccccscccccccccccccc" />
</g>
</svg>
